svgs/sharp-regular/align-slash.svg

<svg xmlns="http://www.w3.org/2000/svg" viewBox="0 0 640 512"><!--! Font Awesome Pro 6.6.0 by @fontawesome - https://fontawesome.com License - https://fontawesome.com/license (Commercial License) Copyright 2024 Fonticons, Inc. --><path d="M48.4 14.8L29.4 .1 0 38l19 14.7L591.5 497.2l19 14.7L639.9 474l-19-14.7L472.4 344l47.6 0 24 0 0-48-24 0-109.4 0-103-80L520 216l24 0 0-48-24 0-274.3 0-103-80L520 88l24 0 0-48-24 0L120 40 96 40l0 11.8-47.6-37zM314.8 344l-60.9-48L120 296l-24 0 0 48 24 0 194.8 0zM152.3 216L96 171.6 96 216l24 0 32.3 0zM477.2 472l-60.9-48L120 424l-24 0 0 48 24 0 357.2 0z"/></svg>

<svg xmlns="http://www.w3.org/2000/svg" viewBox="0 0 640 512"><!--! Font Awesome Pro 6.4.2 by @fontawesome - https://fontawesome.com License - https://fontawesome.com/license (Commercial License) Copyright 2023 Fonticons, Inc. --><path d="M48.4 14.8L29.4 .1 0 38 19 52.7 591.5 497.2l19 14.7L639.9 474l-19-14.7L472.4 344H520h24V296H520 410.6l-103-80H520h24V168H520 245.7l-103-80H520h24V40H520 120 96V51.8l-47.6-37zM314.8 344l-60.9-48H120 96v48h24H314.8zM152.3 216L96 171.6V216h24 32.3zM477.2 472l-60.9-48H120 96v48h24H477.2z"/></svg>
